icon-themes/breeze_svg/sc/res/xml_element.svg

<svg viewBox="0 0 16 11" xmlns="http://www.w3.org/2000/svg"><g fill="#f27935"><path d="m8.6875 1-2.34375 8.75.96875.25 2.34375-8.75z"/><path d="m8.6875 1-2.34375 8.75.96875.25 2.34375-8.75zm-4.40625 1-2.96875 3.15625-.3125.34375.3125.34375 2.96875 3.15625.6875-.6875-2.59375-2.8125 2.625-2.8125zm7.4375 0-.71875.6875 2.625 2.8125-2.59375 2.8125.6875.6875 2.96875-3.15625.3125-.34375-.3125-.34375z"/></g></svg>

<svg xmlns="http://www.w3.org/2000/svg" viewBox="0 0 16 11">
    <path
       style="fill:#f27935"
       d="M 8.6875 1 L 6.34375 9.75 L 7.3125 10 L 9.65625 1.25 L 8.6875 1 z "
       />
    <path
       style="fill:#f27935"
       d="M 8.6875 1 L 6.34375 9.75 L 7.3125 10 L 9.65625 1.25 L 8.6875 1 z M 4.28125 2 L 1.3125 5.15625 L 1 5.5 L 1.3125 5.84375 L 4.28125 9 L 4.96875 8.3125 L 2.375 5.5 L 5 2.6875 L 4.28125 2 z M 11.71875 2 L 11 2.6875 L 13.625 5.5 L 11.03125 8.3125 L 11.71875 9 L 14.6875 5.84375 L 15 5.5 L 14.6875 5.15625 L 11.71875 2 z "
       />
</svg>
